T:Hall of the Mountain King
Q:1/4=150
M:4/4
L:1/8
K:F

D E F G A F A2 |^G E ^G2 G ^D G2 |D E F G A F A d |c A F A c4
D E F G A F A2 |^G E ^G2 G ^D G2 |D E F G A F A d |c A F A c4
A ^B ^c d e c e2 |f d f2 e ^c e2 |A ^B ^c d e c e2 |f d f2 e4 |
A ^B ^c d e c e2 |f d f2 e ^c e2 |A ^B ^c d e c e2 |f d f2 e4 |
D E F G A F A2 |^G E ^G2 G ^D G2 |D E F G A F A d |c A F A c4
D E F G A F A2 |^G E ^G2 G ^D G2 |D E F G A F A d |A F A d D4